X:1
T:Jesus of Nazareth
T:James McGranahan
T:Jesus of Nazareth
T:Public Domain
T:Public Domain
T:Public Domain
C:James McGranahan
Z:Public Domain
%%score ( 1 2 ) ( 3 4 )
L:1/8
M:4/4
K:F
V:1 treble 
V:2 treble 
V:3 bass 
V:4 bass 
V:1
 [Ac]3 [^G=B] [Ac]2 | [FA]3 [CG] [CF] z | [DF]2 [DB]2 [Fd]2 | [Fc]4 z2 | [Fc]3 [F=B] [Fc]2 | %5
w: 1.~“Je- sus of|Naz- a- reth!”|O what a|name!|Let us re-|
w: 2.~Je- sus of|Naz- a- reth,|tru- ly a|man,|Low in His|
w: 3.~Je- sus of|Naz- a- reth,|nailed to the|tree,|Dy- ing that|
w: 4.~Je- sus of|Naz- a- reth,|raised from the|dead,|Spot- less and|
w: 5.~Je- sus of|Naz- a- reth,|seat- ed on|high,|Send- ing the|
w: 6.~Je- sus of|Naz- a- reth,|earth’s com- ing|king,|Peace to the|
 [FA]2 [CG]2 [CF]2 | [CF]2 [CE]2 [CF]2 | [EG]4 z2 | [Fc]3 [Fd] [Fc]2 | [FA]2 [DG]2 [_EF]2 | %10
w: joice and His|glo- ry pro-|claim;|Sav- ior and|keep- er for-|
w: cra- dle His|life He be-|gan,|Lived be- fore|God, both in|
w: we by His|death might be|free,|Bear- ing the|curse all for|
w: ho- ly, and|still in our|stead,|Made for us|ev- er our|
w: Spir- it of|grace to ap-|ply|Life through the|Word un- to|
w: war- ring world|soon He shall|bring,|Na- tions of|saved ones His|
 [DF]2 [DB]2 [Fd]2 | [Fd]4 z2 | [Fc]2 [DF]2 [DB]2 | [CA]3 [CB] [CG]2 | [CF]4 z2 || %15
w: ev- er the|same,|Shep- herd, Re-|deem- er and|Lord.|
w: pat- tern and|plan,|Right- eous, o-|be- di- ent|One.|
w: you and for|me,|Dy- ing a|ran- som for|all.|
w: glor- i- fied|head,|Raised from the|dead for us|all.|
w: men far and|nigh,|Off- ering sal-|va- tion to|all.|
w: prais- es shall|sing;|All shall bow|down at His|name.|
"^Refrain" [FA]3 [EG] [DF]2 | [DF]3 [A,E] [A,D] z | [^CE]2 [DF]2 [CE]2 | D6 | [FA]3 [F^G] [FA]2 | %20
w: |||||
w: |||||
w: Je- sus of|Naz- a- reth,|once cru- ci-|fied,|sus of Naz-|
w: |||||
w: |||||
w: |||||
 [Fd]3 [Ge] [Af]2 | [Af]2 [Ge]2 [Fd]2 | [Ec]6 | [Fc]3 [Fd] [Fc]2 | [FA]3 [CG] [CF]2 | %25
w: |||||
w: |||||
w: a- reth, now|glor- i- fied,|Je-|sus of Naz-|a- reth, throned|
w: |||||
w: |||||
w: |||||
 [DF]2 [DB]2 [Fd]2 | [Fd]6 | [Fc]2 [DF]2 [DB]2 | [CA]3 [CB] [CG]2 | [CF]6 |] %30
w: |||||
w: |||||
w: at God’s side,|Glo-|ry and praise|to His name.||
w: |||||
w: |||||
w: |||||
V:2
 x6 | x6 | x6 | x6 | x6 | x6 | x6 | x6 | x6 | x6 | x6 | x6 | x6 | x6 | x6 || x6 | x6 | x6 | D6 | %19
w: |||||||||||||||||||
w: |||||||||||||||||||
w: ||||||||||||||||||Je-|
 x6 | x6 | x6 | x6 | x6 | x6 | x6 | x6 | x6 | x6 | x6 |] %30
w: |||||||||||
w: |||||||||||
w: |||||||||||
V:3
 [F,C]3 [F,D] [F,C]2 | [F,C]3 [F,B,] [F,A,] z | [B,,B,]2 [B,,F,]2 [B,,B,]2 | [F,A,]4 z2 | %4
 [F,A,]3 [F,^G,] [F,A,]2 | [F,C]2 [F,B,]2 [F,A,]2 | [A,C]2 [G,B,]2 [F,A,]2 | (C,4 B,,2) | %8
 [A,,F,]3 [B,,F,] [A,,F,]2 | [F,,C]2 [G,,B,]2 [A,,C]2 | [B,,B,]2 [B,,F,]2 [B,,B,]2 | [B,,B,]4 z2 | %12
 [A,,F,]2 [D,F,]2 [B,,F,]2 | [C,F,]3 [C,G,] [C,B,]2 | [F,,F,A,]4 z2 || [D,A,]3 [D,A,] [D,A,]2 | %16
 [D,A,]3 [D,G,] [D,F,] z | [A,,A,]2 [A,,A,]2 [A,,G,]2 | [D,F,]6 | [D,A,]3 [D,B,] [D,A,]2 | %20
 [D,A,]3 [D,D] [D,D]2 | [G,=B,]2 [G,C]2 G,2 | [C,G,]6 | [F,A,]3 [F,B,] [F,A,]2 | %24
 [F,C]3 [F,B,] [F,A,]2 | [B,,B,]2 [B,,F,]2 [B,,B,]2 | [B,,B,]6 | [A,,F,]2 [D,F,]2 [B,,F,]2 | %28
 [C,F,]3 [C,G,] [C,B,]2 | [F,,F,A,]6 |] %30
V:4
 x6 | x6 | x6 | x6 | x6 | x6 | x6 | C6 | x6 | x6 | x6 | x6 | x6 | x6 | x6 || x6 | x6 | x6 | x6 | %19
 x6 | x6 | x4 G,2 | x6 | x6 | x6 | x6 | x6 | x6 | x6 | x6 |] %30

